X: 3320
T: Vals-Sekstur
B:[[Notböcker/Melodier til gamle danske Almuedanse for Violin solo]]
O:Danmark
Z:Søren Bak Vestergaard
M: 3/4
L: 1/8
K: G
!1!d2|!4!gbd'bgd|[dB]2 [dB]2 [dB]2|[AA]2 [AA]2 A2|[AA]2 (.[GG,]2 .[GG,]2)|gbd'bgd|\
[dB]2 [dB]2 [dB]2|[AA]2 [AA]2 [AA]2|G2 z2:| |:!1!d2|!trill!b4 b2|bdgbdg|bdgbdb|\
!trill!b4 d2|(c'd)(c'd)(c'd)|(bd)(bd)(bd)|(ad)(fd).f.a|\
g2 z2:| |:!2!b2|d'4 d'2|bd(gb)(gb)|ad(fa)(fa)|\
bd(gb)(gb)|d'4 d'2|bd(gb)(gb)|ad(fa)(fa)|g2 z2:|
(:musicend:)
(:music:)
